assets/images/footer-insta.svg

<svg width="27" height="27" viewBox="0 0 27 27" fill="none" xmlns="http://www.w3.org/2000/svg">
<path fill-rule="evenodd" clip-rule="evenodd" d="M13.5 0C6.04416 0 0 6.04416 0 13.5C0 20.9558 6.04416 27 13.5 27C20.9558 27 27 20.9558 27 13.5C27 6.04416 20.9558 0 13.5 0ZM10.5315 6.3429C11.2995 6.30795 11.5449 6.2994 13.5003 6.2994H13.4981C15.4541 6.2994 15.6986 6.30795 16.4666 6.3429C17.2331 6.378 17.7566 6.49936 18.2156 6.67741C18.6896 6.86116 19.0901 7.10716 19.4906 7.50767C19.8911 7.90787 20.1371 8.30958 20.3216 8.78313C20.4986 9.24094 20.6201 9.76414 20.6561 10.5306C20.6906 11.2987 20.6996 11.5441 20.6996 13.4995C20.6996 15.4549 20.6906 15.6997 20.6561 16.4677C20.6201 17.2339 20.4986 17.7573 20.3216 18.2152C20.1371 18.6886 19.8911 19.0903 19.4906 19.4905C19.0906 19.891 18.6895 20.1377 18.2161 20.3216C17.758 20.4996 17.2342 20.621 16.4676 20.6561C15.6996 20.691 15.455 20.6996 13.4994 20.6996C11.5441 20.6996 11.2989 20.691 10.5309 20.6561C9.76453 20.621 9.24117 20.4996 8.78307 20.3216C8.30981 20.1377 7.90811 19.891 7.50805 19.4905C7.1077 19.0903 6.8617 18.6886 6.67764 18.2151C6.49974 17.7573 6.37839 17.2341 6.34314 16.4676C6.30834 15.6996 6.29964 15.4549 6.29964 13.4995C6.29964 11.5441 6.30864 11.2985 6.34299 10.5305C6.37749 9.76429 6.49899 9.24094 6.67749 8.78298C6.862 8.30958 7.108 7.90787 7.5085 7.50767C7.90871 7.10731 8.31041 6.86131 8.78397 6.67741C9.24177 6.49936 9.76498 6.378 10.5315 6.3429Z" fill="white"/>
<path fill-rule="evenodd" clip-rule="evenodd" d="M12.8541 7.59799C12.9795 7.5978 13.1144 7.59786 13.26 7.59792L13.5 7.59799C15.4224 7.59799 15.6502 7.60489 16.4094 7.63939C17.1114 7.67149 17.4924 7.78879 17.7462 7.88734C18.0822 8.01785 18.3218 8.17385 18.5736 8.42585C18.8256 8.67785 18.9816 8.91785 19.1124 9.25386C19.211 9.50736 19.3284 9.88836 19.3604 10.5904C19.3949 11.3494 19.4024 11.5774 19.4024 13.4989C19.4024 15.4204 19.3949 15.6484 19.3604 16.4074C19.3283 17.1094 19.211 17.4904 19.1124 17.7439C18.9819 18.0799 18.8256 18.3192 18.5736 18.5711C18.3216 18.8231 18.0824 18.9791 17.7462 19.1096C17.4927 19.2086 17.1114 19.3256 16.4094 19.3577C15.6504 19.3922 15.4224 19.3997 13.5 19.3997C11.5774 19.3997 11.3495 19.3922 10.5905 19.3577C9.88854 19.3253 9.50753 19.208 9.25358 19.1094C8.91758 18.9789 8.67757 18.8229 8.42557 18.5709C8.17357 18.3189 8.01757 18.0795 7.88677 17.7433C7.78821 17.4898 7.67076 17.1088 7.63881 16.4068C7.60431 15.6478 7.59741 15.4198 7.59741 13.4971C7.59741 11.5744 7.60431 11.3476 7.63881 10.5886C7.67091 9.88656 7.78821 9.50556 7.88677 9.25176C8.01727 8.91575 8.17357 8.67575 8.42557 8.42375C8.67757 8.17175 8.91758 8.01575 9.25358 7.88494C9.50738 7.78594 9.88854 7.66894 10.5905 7.63669C11.2547 7.60669 11.5122 7.59769 12.8541 7.59619V7.59799ZM17.3442 8.79282C16.8672 8.79282 16.4802 9.17937 16.4802 9.65652C16.4802 10.1335 16.8672 10.5205 17.3442 10.5205C17.8212 10.5205 18.2082 10.1335 18.2082 9.65652C18.2082 9.17952 17.8212 8.79252 17.3442 8.79252V8.79282ZM9.80347 13.4993C9.80347 11.4574 11.459 9.80184 13.5009 9.80176C15.5428 9.80176 17.1979 11.4573 17.1979 13.4993C17.1979 15.5413 15.543 17.1961 13.501 17.1961C11.459 17.1961 9.80347 15.5413 9.80347 13.4993Z" fill="white"/>
<path d="M13.5006 11.1001C14.826 11.1001 15.9006 12.1746 15.9006 13.5001C15.9006 14.8255 14.826 15.9001 13.5006 15.9001C12.175 15.9001 11.1006 14.8255 11.1006 13.5001C11.1006 12.1746 12.175 11.1001 13.5006 11.1001Z" fill="white"/>
</svg>

<svg xmlns="http://www.w3.org/2000/svg" width="27" height="27" fill="none"><path fill="#fff" fill-rule="evenodd" d="M13.5 0C6.044 0 0 6.044 0 13.5S6.044 27 13.5 27 27 20.956 27 13.5 20.956 0 13.5 0Zm-2.969 6.343c.768-.035 1.014-.044 2.97-.044h-.003c1.956 0 2.2.009 2.969.044.766.035 1.29.156 1.749.334.474.184.874.43 1.275.83.4.4.646.803.83 1.276.178.458.3.981.335 1.748.035.768.044 1.013.044 2.968 0 1.956-.01 2.2-.044 2.969-.036.766-.157 1.29-.334 1.747-.185.474-.43.875-.831 1.276-.4.4-.802.647-1.275.83-.458.179-.982.3-1.748.335-.768.035-1.013.044-2.969.044-1.955 0-2.2-.009-2.968-.044-.766-.035-1.29-.156-1.748-.334a3.526 3.526 0 0 1-1.275-.831c-.4-.4-.646-.802-.83-1.276-.178-.458-.3-.98-.335-1.747-.035-.768-.043-1.013-.043-2.969 0-1.955.009-2.2.043-2.969.034-.766.156-1.29.334-1.747.185-.473.431-.875.832-1.275.4-.4.801-.647 1.275-.83.458-.179.981-.3 1.747-.335Z" clip-rule="evenodd"/><path fill="#fff" fill-rule="evenodd" d="M12.854 7.598h.646c1.922 0 2.15.007 2.91.041.701.032 1.082.15 1.336.248.336.13.576.287.828.539.252.252.408.492.538.828.099.253.216.634.248 1.336.035.76.042.987.042 2.909 0 1.921-.007 2.15-.042 2.908-.032.702-.149 1.083-.248 1.337-.13.336-.286.575-.538.827a2.226 2.226 0 0 1-.828.539c-.253.099-.635.216-1.337.248-.759.034-.987.042-2.909.042-1.923 0-2.15-.008-2.91-.042-.701-.033-1.082-.15-1.336-.249a2.23 2.23 0 0 1-.828-.538 2.231 2.231 0 0 1-.54-.828c-.098-.253-.215-.634-.247-1.336-.035-.76-.042-.987-.042-2.91s.007-2.15.042-2.908c.032-.702.15-1.083.248-1.337a2.23 2.23 0 0 1 .539-.828c.252-.252.492-.408.828-.54.253-.098.635-.215 1.337-.247.664-.03.921-.04 2.263-.04v.001Zm4.49 1.195a.864.864 0 1 0 0 1.728.864.864 0 0 0 0-1.728Zm-7.54 4.706a3.698 3.698 0 1 1 7.395 0 3.698 3.698 0 0 1-7.396 0Z" clip-rule="evenodd"/><path fill="#fff" d="M13.5 11.1a2.4 2.4 0 1 1 0 4.8 2.4 2.4 0 0 1 0-4.8Z"/></svg>
